!!!!SEGMENT: pl-wru--50044-muz--001-004_buchner-philipp-friedrich--plectrum-musicum-sonata-iv.krn
!!!cenid: 16xx:1805
!!!COM: Buchner, Philipp Friedrich
!!!COM-rismID: pe30013776
!!!CDT: 1614/09/10-1669/03/23
!!!CNT: German
!!!GTL: Plectrum musicum
!!!OTL: Sonata IV
!!!OMV: 004
!!!PDT: 1662
!!!AGN:
!!!YEC: Copyright 2022 Narodowy Instytut Fryderyka Chopina (https://polishscores.org)
!!!YEM: License CC-BY-4.0 (https://creativecommons.org/licenses/by/4.0)
!!!SMS-siglum: PL-WRu
!!!SMS-shelfmark: 50044 Muz.
!!!SMS-shelfwork: 001-004 G
!!!SMS-variant:
!!!SMS-altvar:
!!!NIFC-rismSourceID: 990007465
!!!NIFC-rismChildID: 990007465
!!!NIFC-islandoraID: none
!!!URL-pdf-islandora:
!!!URL-scan: https://www.bibliotekacyfrowa.pl/dlibra/doccontent?id=116 @EN{Scan on Digital Library of University of Wroclaw} @PL{Skany w portalu Biblioteka Cyfrowa Uniwersytetu Wrocławskiego}
!!!IIIF:
!!!ONB-nifc: UWAGA: Violino I: s. 6, Violino II: s. 25, Bassus: s. 68, Bassus continuus: s. 83
!!!AIN: 3 empty 1 violn
!!!key:
**kern	**fba	**kern	**fba	**kern	**kern
*part4	*	*part3	*	*part2	*part1
*staff4	*	*staff3	*	*staff2	*staff1
*Iempty	*	*Iempty	*	*Ivioln	*Iempty
*I"BASSUS	*	*I"BASSUS	*	*I"Violino II	*I"VIOLINO 1.
*I'bc	*	*I'b	*	*I'vl 2	*I'vl 1
*	*	*ICstr	*	*ICstr	*ICstr
*IGcont	*	*	*	*	*
*clefF4	*	*clefF4	*	*clefG2	*clefG2
*	*	*Trd0c0	*	*	*
*k[]	*	*k[]	*	*k[]	*k[]
*a:	*	*a:	*	*a:	*a:
*M2/2	*	*M2/2	*	*M2/2	*M2/2
*met(c|)	*	*met(c|)	*	*met(c|)	*met(c|)
=1-	=1-	=1-	=1-	=1-	=1-
!LO:TX:a:B:t=Sonata IV.	!	!LO:TX:a:B:t=Sonata IV.	!	!LO:TX:a:B:t=Sonata IV.	!LO:TX:a:B:t=Sonata IV.
!LO:TX:b:B:t=Adagio.	!	!LO:TX:b:B:t=Adagio.	!	!LO:TX:b:B:t=Adagio.	!LO:TX:b:B:t=Adagio.
!	!	!	!	!	!LO:TX:t=P:problem:kreska pseudotaktowa w postaci przecinka:global
2.AA/	.	2.AA/	.	00r	2ee\
.	.	.	.	.	4a/
4GG#X/	.	4GG#X/	.	.	4b/
=2-	=2-	=2-	=2-	=2-	=2-
4AA/	.	4AA/	.	.	4cc\
4BB/	.	4BB/	.	.	4dd\
!	!	!	!	!	!LO:TX:t=P:problem:kreska pseudotaktowa
4.C/	.	4.C/	.	.	[<2ee\
!LO:TX:t=P:problem:kreska pseudotaktowa	!	!LO:TX:t=P:problem:kreska pseudotaktowa	!	!	!
8D/	.	8D/	.	.	.
=3-	=3-	=3-	=3-	=3-	=3-
4E\	.	4E\	.	.	8ee\]
.	.	.	.	.	8cc\
[<4A\	.	[<4A\	.	.	8.cc\
.	.	.	.	.	16b/
!	!	!	!	!	!LO:TX:t=P:problem:kreska pseudotaktowa
4A\]	2	4A\]	2	.	2b/
4G\	6	4G\	6	.	.
=4-	=4-	=4-	=4-	=4-	=4-
2F#X\	.	2F#X\	.	.	8r
.	.	.	.	.	8.a/
.	.	.	.	.	16g/
.	.	.	.	.	16f#X/
.	.	.	.	.	32e/
.	.	.	.	.	32f#/
!LO:TX:t=P:problem:kreska pseudotaktowa	!	!LO:TX:t=P:problem:kreska pseudotaktowa	!	!	!
2G\	.	2G\	.	.	8d/
.	.	.	.	.	8.dd\
.	.	.	.	.	16cc\
.	.	.	.	.	16b/
.	.	.	.	.	32a/
!	!	!	!	!	!LO:TX:t=P:problem:kreska pseudotaktowa
.	.	.	.	.	32b/
=5-	=5-	=5-	=5-	=5-	=5-
2E\	-	2E\	-	0r	8g/
.	.	.	.	.	8.gg\
.	.	.	.	.	16ff\
.	.	.	.	.	16ee\
.	.	.	.	.	32dd\
.	.	.	.	.	32ee\
4AA/	.	4AA/	.	.	8cc\
.	.	.	.	.	8.ee\
4A\	.	4A\	.	.	.
.	.	.	.	.	16dd\
.	.	.	.	.	16cc\
.	.	.	.	.	32b/
!	!	!	!	!	!
.	.	.	.	.	32cc\
*	*	*	*	*	*custos:a
!	!	!	!	!	!LO:LB:g=original
=6-	=6-	=6-	=6-	=6-	=6-
4Fny\	.	4Fny\	.	.	2.a/
4C/	6	4C/	6	.	.
!LO:TX:t=P:problem:kreska pseudotaktowa	!	!LO:TX:t=P:problem:kreska pseudotaktowa	!	!	!
2E\	4	2E\	4	.	.
.	#	.	#	.	4g#X/
=7-	=7-	=7-	=7-	=7-	=7-
4.AA/	.	4.AA/	.	2a/	2a/
8BB/	.	8BB/	.	.	.
4C/	.	4C/	.	4e/	2r
4D/	#	4D/	#	4f#X/	.
=8-	=8-	=8-	=8-	=8-	=8-
4E\	.	4E\	.	4g/	0r
4F#X\	.	4F#X\	.	4a/	.
!	!	!	!	!LO:TX:t=P:problem:kreska pseudotaktowa	!
4G\	.	4G\	.	2b/	.
!LO:TX:t=P:problem:kreska pseudotaktowa	!	!LO:TX:t=P:problem:kreska pseudotaktowa	!	!	!
4GGny/	.	4GGny/	.	.	.
=9-	=9-	=9-	=9-	=9-	=9-
4BB/	.	4BB/	.	8b/	.
.	.	.	.	8g/	.
[<4E\	.	[<4E\	.	8.g/	.
.	.	.	.	16f#X/	.
!	!	!	!	!LO:TX:t=P:problem:kreska pseudotaktowa	!
4E\]	2	4E\]	.	2f#X/	.
4D/	#	4D/	#	.	.
=10-	=10-	=10-	=10-	=10-	=10-
2C#X/	.	2C#X/	.	8r	4r
.	.	.	.	8.e/	.
.	.	.	.	.	8r
.	.	.	.	16d/	.
.	.	.	.	16c#X/	8.a/
.	.	.	.	32B/	.
.	.	.	.	32c#/	.
!	!	!	!	!	!
2D/	#	2D/	#	8B/	.
.	.	.	.	.	16gny/
.	.	.	.	8.a/	16f#X/
.	.	.	.	.	32e/
.	.	.	.	.	32f#/
.	.	.	.	.	8d/
.	.	.	.	16g/	.
!	!	!	!	!	!LO:TX:t=P:problem:kreska pseudotaktowa
.	.	.	.	16f#X/	8.dd\
.	.	.	.	32e/	.
!	!	!	!	!LO:TX:t=P:problem:kreska pseudotaktowa	!
.	.	.	.	32f#/	.
*custos:BB	*	*custos:BB	*	*	*
!LO:LB:g=original	!	!LO:LB:g=original	!	!	!
=11-	=11-	=11-	=11-	=11-	=11-
2BB/	6	2BB/	6	8d/	.
.	.	.	.	.	16cc\
.	.	.	.	8.dd\	16b/
.	.	.	.	.	32a/
.	.	.	.	.	32b/
.	.	.	.	.	4g/
.	.	.	.	16cc\	.
.	.	.	.	16b/	.
.	.	.	.	32a/	.
!	!	!	!	!	!
.	.	.	.	32b/	.
*	*	*	*	*custos:g	*
!	!	!	!	!LO:LB:g=original	!
!LO:TX:t=P:problem:kreska pseudotaktowa	!	!LO:TX:t=P:problem:kreska pseudotaktowa	!	!	!
2Cny/	5	2Cny/	5	8g/	8r
.	.	.	.	8.ee\	8.gg\
.	.	.	.	16dd\	16ff\
.	.	.	.	16cc\	16ee\
.	.	.	.	32b/	32dd\
!	!	!	!	!LO:TX:t=P:problem:kreska pseudotaktowa	!
.	.	.	.	32cc\	32ee\
=12-	=12-	=12-	=12-	=12-	=12-
2C/	6	2C/	6	8a/	8cc\
.	.	.	.	8.cc\	8.ee\
.	.	.	.	16b/	16dd\
.	.	.	.	16a/	16cc\
.	.	.	.	32g/	32b/
.	.	.	.	32a/	32cc\
4D/	.	4D/	.	8fny/	8a/
.	.	.	.	8.ff\	8.aa\
4Fny\	6	4Fny\	6	.	.
.	.	.	.	16ee\	16gg\
.	.	.	.	16dd\	16ff\
.	.	.	.	32cc\	32ee\
!	!	!	!	!LO:TX:t=P:problem:kreska pseudotaktowa	!
.	.	.	.	32dd\	32ff\
*	*	*	*	*	*custos:dd
!	!	!	!	!	!LO:LB:g=original
=13-	=13-	=13-	=13-	=13-	=13-
4G\	.	4G\	.	8b/	8dd\
.	.	.	.	8ee\	8.gg\
4E\	6	4E\	6	2cc\	.
.	.	.	.	.	16ff\
.	.	.	.	.	16ee\
.	.	.	.	.	32dd\
.	.	.	.	.	32ee\
4F\	6 5	4F\	6 5	.	8cc\
.	.	.	.	.	8ff\
!LO:TX:t=P:problem:kreska pseudotaktowa	!	!LO:TX:t=P:problem:kreska pseudotaktowa	!	!LO:TX:t=P:problem:kreska pseudotaktowa	!LO:TX:t=P:problem:kreska pseudotaktowa
4G\	.	4G\	.	4b/	4dd\
=14-	=14-	=14-	=14-	=14-	=14-
2C/	5	2C/	5	8r	4cc\
.	.	.	.	8.cc\	.
.	.	.	.	.	4r
.	.	.	.	16b/	.
.	6	.	6	16a/	.
.	.	.	.	32g/	.
.	.	.	.	32a/	.
2D/	-	2D/	-	4f/	8r
.	.	.	.	.	8.ff\
!	!	!	!	!LO:TX:t=P:problem:kreska pseudotaktowa	!
.	.	.	.	4r	.
.	.	.	.	.	16ee\
.	.	.	.	.	16dd\
.	.	.	.	.	32cc\
!	!	!	!	!	!LO:TX:t=P:problem:kreska pseudotaktowa
.	.	.	.	.	32dd\
=15-	=15-	=15-	=15-	=15-	=15-
2GG/	.	2GG/	.	8r	4b/
.	.	.	.	8.dd\	.
.	.	.	.	.	4r
.	.	.	.	16cc\	.
.	.	.	.	16b/	.
.	.	.	.	32a/	.
.	.	.	.	32b/	.
2EE/	-	2EE/	-	4g/	8r
.	.	.	.	.	8.gg\
!	!	!	!	!	!
.	.	.	.	4r	.
.	.	.	.	.	16ff\
.	.	.	.	.	16ee\
.	.	.	.	.	32dd\
!	!	!	!	!	!LO:TX:t=P:problem:kreska pseudotaktowa
.	.	.	.	.	32ee\
*	*	*	*	*custos:ee	*
!	!	!	!	!LO:LB:g=original	!
=16-	=16-	=16-	=16-	=16-	=16-
[2AA/	.	[2AA/	.	2ee\	4cc\
.	.	.	.	.	4r
4AA/]	.	4AA/]	.	4a/	8r
.	.	.	.	.	8.ee\
4GG#X/	.	4GG#X/	.	4b/	.
.	.	.	.	.	16dd\
.	.	.	.	.	16cc\
.	.	.	.	.	32b/
!	!	!	!	!	!LO:TX:t=P:problem:kreska pseudotaktowa
.	.	.	.	.	32cc\
=17-	=17-	=17-	=17-	=17-	=17-
4AA/	.	4AA/	.	4cc\	4a/
4BB/	.	4BB/	.	4dd\	8r
.	.	.	.	.	8.g/
!	!	!	!	!LO:TX:t=P:problem:kreska pseudotaktowa	!
4.C/	.	4.C/	.	[<2ee\	.
.	.	.	.	.	16fny/
.	.	.	.	.	16e/
.	.	.	.	.	32d/
.	.	.	.	.	32e/
!	!	!	!	!	!
!	!	!	!	!	!
.	.	.	.	.	4c/
!LO:TX:t=P:problem:kreska pseudotaktowa	!	!LO:TX:t=P:problem:kreska pseudotaktowa	!	!	!
8D/	.	8D/	.	.	.
*	*	*	*	*	*custos:ee
!	!	!	!	!	!LO:LB:g=original
=18-	=18-	=18-	=18-	=18-	=18-
4E\	.	4E\	.	8ee\]	2r
.	.	.	.	8cc\	.
[<4A\	.	[<4A\	.	8.cc\	.
.	.	.	.	16b/	.
4A\]	2	4A\]	.	4b/	8r
.	.	.	.	.	8.ee\
4G#X\	.	4G#X\	.	8r	.
.	.	.	.	.	16dd\
!	!	!	!	!LO:TX:t=P:problem:kreska pseudotaktowa	!
.	.	.	.	8.ee\	16cc\
.	.	.	.	.	32b/
.	.	.	.	.	32cc\
=19-	=19-	=19-	=19-	=19-	=19-
4A\	.	4A\	.	.	4a/
.	.	.	.	16dd\	.
.	.	.	.	16cc\	.
.	.	.	.	32b/	.
.	.	.	.	32cc\	.
4F#X\	.	4F#X\	.	4a/	8r
.	.	.	.	.	8.dd\
!LO:TX:t=P:problem:kreska pseudotaktowa	!	!LO:TX:t=P:problem:kreska pseudotaktowa	!	!	!
2Gny\	.	2Gny\	.	8r	.
.	.	.	.	.	16cc\
.	.	.	.	8.dd\	16b/
.	.	.	.	.	32a/
.	.	.	.	.	32b/
!	!	!	!	!	!LO:TX:t=P:problem:kreska pseudotaktowa
.	.	.	.	.	4g/
.	.	.	.	16cc\	.
.	.	.	.	16b/	.
.	.	.	.	32a/	.
!	!	!	!	!LO:TX:t=P:problem:kreska pseudotaktowa	!
.	.	.	.	32b/	.
=20-	=20-	=20-	=20-	=20-	=20-
2E\	.	2E\	.	2g/	4r
.	.	.	.	.	4ee\
4Fny\	5	4Fny\	5	4r	4a/
.	6	.	6	.	.
4D/	6	4D/	6	8r	4b/
!	!	!	!	!LO:TX:t=P:problem:brak dźwięków	!
.	.	.	.	8ryy	.
=21-	=21-	=21-	=21-	=21-	=21-
4E\	6	4E\	6	2ryy	4cc\
4BB/	.	4BB/	.	.	4dd\
!	!	!	!	!	!LO:TX:t=P:problem:kreska pseudotaktowa
4.C/	.	4.C/	.	8ryy	[2ee\
.	.	.	.	8.cc\	.
.	.	.	.	16b/	.
!	!	!	!	!	!
8D/	.	8D/	.	16a/	.
.	.	.	.	32a/	.
.	.	.	.	32b/	.
*custos:E	*	*custos:E	*	*	*
!LO:LB:g=original	!	!LO:LB:g=original	!	!	!
=22-	=22-	=22-	=22-	=22-	=22-
4E\	#	4E\	#	4g#X/	8ee\]
.	.	.	.	.	8cc\
4F\	.	4F\	.	2a/	8.cc\
.	.	.	.	.	16b/
!	!	!	!	!	!LO:TX:t=P:problem:kreska pseudotaktowa
4D/	6 5	4D/	6 5	.	2b/
!	!	!	!	!LO:TX:t=P:problem:kreska pseudotaktowa	!
4E\	#	4E\	#	4g#X/	.
=23-	=23-	=23-	=23-	=23-	=23-
2AA/	.	2AA/	.	4a/	2r
.	.	.	.	4cc\	.
4E\	.	4E\	.	4gny/	2gg\
!LO:TX:t=P:problem:kreska pseudotaktowa	!	!LO:TX:t=P:problem:kreska pseudotaktowa	!	!	!
4F\	.	4F\	.	4a/	.
*	*	*	*	*custos:b	*
!	!	!	!	!LO:LB:g=original	!
=24-	=24-	=24-	=24-	=24-	=24-
4G\	6	4G\	6	4b/	4dd\
4E\	.	4E\	.	4cc\	4ee\
4D/	.	4D/	.	8dd\	4ff\
.	.	.	.	8b/	.
4E\	5	4E\	5	8.b/	4gg\
.	.	.	.	16a/	.
=25-	=25-	=25-	=25-	=25-	=25-
4.F\	5	4.F\	5	4a/	8aa\
.	.	.	.	.	8ff\
.	6	.	6	2dd\	8.ff\
8D/	.	8D/	.	.	.
.	.	.	.	.	16ee\
!LO:TX:t=P:problem:kreska pseudotaktowa	!	!LO:TX:t=P:problem:kreska pseudotaktowa	!	!	!
2A\	4	2A\	4	.	2ee\
!	!	!	!	!LO:TX:t=P:problem:kreska pseudotaktowa	!
.	#	.	#	4cc#X\	.
*	*	*	*	*	*custos:gg
!	!	!	!	!	!LO:LB:g=original
=26-	=26-	=26-	=26-	=26-	=26-
2D/	5	2D/	5	8r	2r
.	.	.	.	8.dd\	.
.	.	.	.	16ccny\	.
.	6	.	6	16b/	.
.	.	.	.	32a/	.
.	.	.	.	32b/	.
2E\	5	2E\	5	4g/	8r
.	.	.	.	.	8.gg\
!	!	!	!	!LO:TX:t=P:problem:kreska pseudotaktowa	!
.	.	.	.	4r	.
.	.	.	.	.	16ff\
.	6	.	6	.	16ee\
.	.	.	.	.	32dd\
!	!	!	!	!	!LO:TX:t=P:problem:kreska pseudotaktowa
.	.	.	.	.	32ee\
=27-	=27-	=27-	=27-	=27-	=27-
2F\	5	2F\	5	8r	4cc\
!	!	!	!	!	!
.	.	.	.	8.aa\	.
.	.	.	.	.	4r
.	.	.	.	16gg\	.
.	6	.	.	16ff\	.
.	.	.	.	32ee\	.
.	.	.	.	32ff\	.
!LO:TX:t=P:problem:kreska pseudotaktowa	!	!LO:TX:t=P:problem:kreska pseudotaktowa	!	!	!
2G\	.	2G\	6	4dd\	8r
.	.	.	.	.	8.b/
!	!	!	!	!LO:TX:t=P:problem:kreska pseudotaktowa	!
.	.	.	.	4r	.
.	.	.	.	.	16a/
.	.	.	.	.	16g/
.	.	.	.	.	32f/
!	!	!	!	!	!LO:TX:t=P:problem:kreska pseudotaktowa
.	.	.	.	.	32g/
=28-	=28-	=28-	=28-	=28-	=28-
2C/	5	2C/	5	8r	8e/
.	.	.	.	8.cc\	8.ee\
.	.	.	.	16b/	16dd\
.	6	.	6	16a/	16cc\
.	.	.	.	32g/	32b/
.	.	.	.	32a/	32cc\
2D/	5	2D/	5	8f/	8a/
.	.	.	.	8.dd\	8.ff\
.	.	.	.	16cc\	16ee\
.	6	.	6	16b/	16dd\
.	.	.	.	32a/	32cc\
!	!	!	!	!	!LO:TX:t=P:problem:kreska pseudotaktowa
.	.	.	.	32b/	32dd\
*	*	*	*	*custos:g	*
!	!	!	!	!LO:LB:g=original	!
=29-	=29-	=29-	=29-	=29-	=29-
2E\	5	2E\	5	8g/	4b/
.	.	.	.	8.gg\	.
.	.	.	.	.	4r
.	.	.	.	16ff\	.
.	6	.	6	16ee\	.
.	.	.	.	32dd\	.
.	.	.	.	32ee\	.
4F\	.	4F\	.	4cc\	2r
!LO:TX:t=P:problem:kreska pseudotaktowa	!	!LO:TX:t=P:problem:kreska pseudotaktowa	!	!LO:TX:t=P:problem:kreska pseudotaktowa	!
4C/	.	4C/	.	4ee\	.
=30-	=30-	=30-	=30-	=30-	=30-
2D/	5	2D/	5	4a/	2aa\
.	6	.	6	4b/	.
[2C/	.	[2C/	.	4cc\	4ee\
!	!	!	!	!LO:TX:t=P:problem:kreska pseudotaktowa	!
.	.	.	.	4dd\	4ff#X\
=31-	=31-	=31-	=31-	=31-	=31-
4C/]	.	4C/]	.	8ee\	4gg\
.	.	.	.	8cc\	.
4AA/	.	4AA/	.	8.cc\	4aa\
.	.	.	.	16b/	.
!LO:TX:t=P:problem:kreska pseudotaktowa	!	!LO:TX:t=P:problem:kreska pseudotaktowa	!	!	!
2GGny/	5	2GGny/	5	4b/	8bb\
.	.	.	.	.	8gg\
!	!	!	!	!LO:TX:t=P:problem:kreska pseudotaktowa	!
.	6	.	6	[<4ee\	8.gg\
!	!	!	!	!	!
!	!	!	!	!	!LO:TX:t=P:problem:kreska pseudotaktowa
.	.	.	.	.	16ff#X\
*	*	*	*	*	*custos:ff
!	!	!	!	!	!LO:LB:g=original
=32-	=32-	=32-	=32-	=32-	=32-
2BB/	4	2BB/	4	4ee\]	2ff#X\
.	#	.	#	4dd#X\	.
4EE/	.	4EE/	.	8ee\	2r
.	.	.	.	8.b/	.
4E\	.	4E\	.	.	.
.	.	.	.	16a/	.
.	.	.	.	16g/	.
.	.	.	.	32f/	.
!	!	!	!	!LO:TX:t=P:problem:kreska pseudotaktowa	!
.	.	.	.	32g/	.
=33-	=33-	=33-	=33-	=33-	=33-
[2C/	.	[2C/	.	4e/	4r
.	.	.	.	4cc\	4ee\
4C/]	6 4	4C/]	6 4	4f#X/	4a/
!	!	!	!	!	!LO:TX:t=P:problem:kreska pseudotaktowa
4BB/	6	4BB/	6	4g/	4b/
=34-	=34-	=34-	=34-	=34-	=34-
!LO:TX:t=P:problem:kreska pseudotaktowa	!	!LO:TX:t=P:problem:kreska pseudotaktowa	!	!	!
1AA	.	1AA	.	4a/	4cc\
.	.	.	.	4b/	4dd\
.	.	.	.	8cc\	8ee\
.	.	.	.	8a/	8cc\
.	.	.	.	8.a/	8.cc\
!	!	!	!	!	!
.	.	.	.	16g#X/	16b/
*	*	*	*	*custos:g	*
!	!	!	!	!LO:LB:g=original	!
=35-	=35-	=35-	=35-	=35-	=35-
2E\	#	2E\	#	2g#X/	2b/
!	!	!	!	!	!LO:TX:t=P:problem:kreska pseudotaktowa
2GG#X/	.	2GG#X/	.	8r	2r
.	.	.	.	8.ee\	.
.	.	.	.	16ddny\	.
.	.	.	.	16cc\	.
.	.	.	.	32b/	.
!	!	!	!	!LO:TX:t=P:problem:kreska pseudotaktowa	!
.	.	.	.	32cc\	.
*custos:AA	*	*custos:AA	*	*	*
!LO:LB:g=original	!	!LO:LB:g=original	!	!	!
=36-	=36-	=36-	=36-	=36-	=36-
2AA/	5	2AA/	5	4a/	8r
.	.	.	.	.	8.aa\
.	.	.	.	4r	.
.	.	.	.	.	16gg\
.	6	.	6	.	16ffny\
.	.	.	.	.	32ee\
.	.	.	.	.	32ff\
2BB/	6	2BB/	6	8r	8dd\
.	.	.	.	8.b/	8.dd\
.	.	.	.	16a/	16cc\
.	.	.	.	16gny/	16b/
.	.	.	.	32fny/	32a/
!	!	!	!	!LO:TX:t=P:problem:kreska pseudotaktowa	!LO:TX:t=P:problem:kreska pseudotaktowa
.	.	.	.	32g/	32b/
=37-	=37-	=37-	=37-	=37-	=37-
4C/	.	4C/	.	8e/	4g/
.	.	.	.	8.gg\	.
4E\	.	4E\	.	.	4r
.	.	.	.	16ff\	.
.	.	.	.	16ee\	.
.	.	.	.	32dd\	.
.	.	.	.	32ee\	.
!LO:TX:t=P:problem:kreska pseudotaktowa	!	!LO:TX:t=P:problem:kreska pseudotaktowa	!	!	!
2F\	5	2F\	5	4cc\	8r
.	.	.	.	.	8.ff\
!	!	!	!	!LO:TX:t=P:problem:kreska pseudotaktowa	!
.	.	.	.	4r	.
.	.	.	.	.	16ee\
.	6	.	6	.	16dd\
.	.	.	.	.	32cc\
!	!	!	!	!	!LO:TX:t=P:problem:kreska pseudotaktowa
.	.	.	.	.	32dd\
=38-	=38-	=38-	=38-	=38-	=38-
4G\	.	4G\	.	2g/	4b/
8GGny/	.	8GGny/	.	.	4r
8AA/	.	8AA/	.	.	.
4BB/	.	4BB/	.	4d/	2dd\
4C/	.	4C/	.	4e/	.
=39-	=39-	=39-	=39-	=39-	=39-
4D/	-	4D/	-	4f/	4a/
4BB/	6	4BB/	6	4g/	4b/
[2AA/	5	[2AA/	5	8a/	4cc\
.	6	.	6	8f/	.
!	!	!	!	!	!
.	.	.	.	8.f/	4dd\
.	.	.	.	16e/	.
*	*	*	*	*	*custos:ee
!	!	!	!	!	!LO:LB:g=original
=40-	=40-	=40-	=40-	=40-	=40-
2AA/]	.	2AA/]	.	4e/	8ee\
.	.	.	.	.	8cc\
.	.	.	.	2a/	8.cc\
.	.	.	.	.	16b/
2E\	4	2E\	4	.	2b/
.	.	.	.	4g#X/	.
=41-	=41-	=41-	=41-	=41-	=41-
!LO:TX:t=P:problem:kreska pseudotaktowa	!	!LO:TX:t=P:problem:kreska pseudotaktowa	!	!	!LO:TX:t=P:problem:kreska pseudotaktowa
1AA	#	1AA	#	1a	1a
*	*	*	*	*custos:ee	*
!	!	!	!	!LO:LB:g=original	!
=42-	=42-	=42-	=42-	=42-	=42-
!LO:TX:b:B:t=adagio.	!	!LO:TX:b:B:t=adagio.	!	!	!
2A\	.	2A\	.	4r	0r
.	.	.	.	4.ee\	.
4.F\	7	4.F\	7	.	.
.	.	.	.	8a/	.
!	!	!	!	!LO:TX:t=P:problem:LO:N:vis=8.	!
.	6	.	6	4.dd\	.
8D/	.	8D/	.	.	.
=43-	=43-	=43-	=43-	=43-	=43-
4.E\	7	4.E\	7	.	.
.	.	.	.	8gny/	.
.	6	.	6	4.cc\	.
8AA/	.	8AA/	.	.	.
4.D/	7	4.D/	7	.	.
.	.	.	.	8f#X/	.
!	!	!	!	!LO:TX:t=P:problem:kreska pseudotaktowa:między nutą a kropką	!
.	6	.	6	4.b/	.
8GG/	.	8GG/	.	.	.
=44-	=44-	=44-	=44-	=44-	=44-
4BB/	.	4BB/	.	.	2r
.	.	.	.	8dd\	.
4D/	#	4D/	#	4a/	.
!LO:TX:t=P:problem:kreska pseudotaktowa	!	!LO:TX:t=P:problem:kreska pseudotaktowa	!	!	!
2GG/	.	2GG/	.	2g/	4r
.	.	.	.	.	4.bb\
=45-	=45-	=45-	=45-	=45-	=45-
4.C/	7	4.C/	7	0r	.
.	.	.	.	.	8ee\
.	6	.	6	.	4.aa\
8AA/	.	8AA/	.	.	.
4.BB/	7	4.BB/	7	.	.
.	.	.	.	.	8dd\
!	!	!	!	!	!LO:TX:t=P:problem:kreska pseudotaktowa:między nutą a kropką
.	6	.	6	.	4.gg\
8EE/	.	8EE/	.	.	.
=46-	=46-	=46-	=46-	=46-	=46-
4.AA/	.	4.AA/	.	.	.
.	.	.	.	.	8cc\J
.	.	.	.	.	4.ff\
8DD/	.	8DD/	.	.	.
4FF/	6	4FF/	6	.	.
.	.	.	.	.	8gg\
!	!	!	!	!	!LO:TX:t=P:problem:kreska pseudotaktowa
4AA/	#	4AA/	#	.	4ee\
*custos:D	*	*custos:D	*	*	*
!LO:LB:g=original	!	!LO:LB:g=original	!	!	!
=47-	=47-	=47-	=47-	=47-	=47-
2D/	.	2D/	.	4r	2dd\
.	.	.	.	4.dd\	.
4.E\	7	4.E\	7	.	2r
.	.	.	.	8g/	.
.	6	.	6	4.cc\	.
8C/	.	8C/	.	.	.
=48-	=48-	=48-	=48-	=48-	=48-
4.D/	7	4.D/	7	.	1r
.	.	.	.	8fny/	.
.	6	.	6	4.b-X/	.
8GG/	.	8GG/	.	.	.
4.C/	7	4.C/	7	.	.
.	.	.	.	8e/	.
!	!	!	!	!LO:TX:t=P:problem:kreska pseudotaktowa:między nutą a kropką	!
.	6	.	6	4.a/	.
!LO:TX:t=P:problem:kreska pseudotaktowa	!	!LO:TX:t=P:problem:kreska pseudotaktowa	!	!	!
8FF/	.	8FF/	.	.	.
=49-	=49-	=49-	=49-	=49-	=49-
4AA/	6	4AA/	6	.	2r
.	.	.	.	8cc\	.
4C/	.	4C/	.	4g/	.
4FF/	.	4FF/	.	2f/	4r
!	!	!	!	!	!LO:TX:t=P:problem:kreska pseudotaktowa:między nutą a kropką
!	!	!	!	!	!
4F\	.	4F\	.	.	4.aa\
=50-	=50-	=50-	=50-	=50-	=50-
!	!	!	!	!	!
4.B-X\	7	4.B-X\	7	0r	.
.	.	.	.	.	8dd\J
.	6	.	6	.	4.gg\
8G\	.	8G\	.	.	.
4.A\	7	4.A\	7	.	.
.	.	.	.	.	8cc\
!	!	!	!	!	!LO:TX:t=P:problem:kreska pseudotaktowa:między nutą a kropką
.	6	.	6	.	4.ff\
8D/	.	8D/	.	.	.
=51-	=51-	=51-	=51-	=51-	=51-
4.G\	7	4.G\	7	.	.
!	!	!	!	!	!LO:TX:t=P:problem:LO:N:vis=16
.	.	.	.	.	8b/
.	6	.	6	.	4.ee\
8C/	.	8C/	.	.	.
4E\	6	4E\	6	.	.
.	.	.	.	.	8gg\
!LO:TX:t=P:problem:kreska pseudotaktowa	!	!LO:TX:t=P:problem:kreska pseudotaktowa	!	!	!LO:TX:t=P:problem:kreska pseudotaktowa
4G\	.	4G\	.	.	4dd\
=52-	=52-	=52-	=52-	=52-	=52-
2C/	.	2C/	.	4r	2cc\
.	.	.	.	4.gg\	.
!	!	!	!	!	!
2AA/	7	2AA/	7	.	4.ccc\
.	.	.	.	8cc\	.
!	!	!	!	!LO:TX:t=P:problem:kreska pseudotaktowa:między nutą a kropką	!
.	6	.	6	4.ff\	.
!	!	!	!	!	!
.	.	.	.	.	8ff\
*	*	*	*	*	*custos:bb
!	!	!	!	!	!LO:LB:g=original
=53-	=53-	=53-	=53-	=53-	=53-
!	!	!	!	!	!LO:N:acc=#
2GG/	7	2GG/	7	.	4.bbn\
.	.	.	.	8bny/	.
.	6	.	6	4.ee\	.
.	.	.	.	.	8ee\
2FF/	7	2FF/	7	.	4.aa\
.	.	.	.	8a/	.
.	6	.	6	4.dd\	.
!	!	!	!	!	!LO:TX:t=P:problem:kreska pseudotaktowa
.	.	.	.	.	8dd\
=54-	=54-	=54-	=54-	=54-	=54-
4EE/	7	4EE/	7	.	4.ee\
.	6	.	6	8g#X/	.
4FF/	7	4FF/	7	2a/	.
.	6	.	6	.	8a/
4DD/	6 5	4DD/	6 5	.	8dd\
.	.	.	.	.	8ff\
4EE/	#	4EE/	#	4g#X/	4b/
*	*	*	*	*custos:a	*
!	!	!	!	!LO:LB:g=original	!
=55-	=55-	=55-	=55-	=55-	=55-
1AA	.	1AA	.	1a	1a
=56-	=56-	=56-	=56-	=56-	=56-
*M3/2	*	*M3/2	*	*M3/2	*M3/2
*met(C|3)	*	*met(C|3)	*	*met(C|3)	*met(C|3)
!LO:TX:b:B:t=allegro.	!	!LO:TX:b:B:t=allegro.	!	!LO:TX:b:B:t=allegro.	!LO:TX:b:B:t=allegro.
2.A\	.	2.A\	.	1.r	4a/
.	.	.	.	.	4cc\
!	!	!	!	!	!LO:TX:t=P:problem:kreska pseudotaktowa:między nutą a kropką
.	.	.	.	.	4.ee\
2.G#X\	.	2.G#X\	.	.	.
.	.	.	.	.	8ee\
.	.	.	.	.	8dd\
.	.	.	.	.	8cc\
.	.	.	.	.	8.b/
.	.	.	.	.	16cc\
=57-	=57-	=57-	=57-	=57-	=57-
2.A\	.	2.A\	.	4a/	8a/
.	.	.	.	.	8ee\
.	.	.	.	4cc\	8cc\
.	.	.	.	.	8a/
!	!	!	!	!LO:TX:t=P:problem:kreska pseudotaktowa:między nutą a kropką	!
.	.	.	.	4.ee\	8e/
!	!	!	!	!	!LO:TX:t=P:problem:kreska pseudotaktowa
.	.	.	.	.	8f#X/
!	!	!	!	!	!
2.E\	#	2.E\	#	.	4g#X/
.	.	.	.	8ee\	.
.	4	.	4	8dd\	8a/
.	.	.	.	8cc\	4a/
.	.	.	.	8.b/	.
!	!	!	!	!	!
.	#	.	#	.	8g#X/
.	.	.	.	16cc\	.
*custos:A	*	*custos:A	*	*	*custos:a
!LO:LB:g=original	!	!LO:LB:g=original	!	!	!LO:LB:g=original
=58-	=58-	=58-	=58-	=58-	=58-
2A\	.	2A\	.	8a/	8a/
.	.	.	.	8ee\	8cc\
.	.	.	.	8cc\	4ee\
.	.	.	.	8a/	.
!	!	!	!	!	!LO:TX:t=P:problem:kreska pseudotaktowa:między nutą a kropką
4E\	6	4E\	6	8gny/	4.gg\
.	.	.	.	8a/	.
2.Gny\	3	2.Gny\	3	4b/	.
.	.	.	.	.	8gg\
.	4	.	4	8cc\	8ff\
.	.	.	.	4cc\	8ee\
.	.	.	.	.	8.dd\
.	3	.	3	8b/	.
!	!	!	!	!	!LO:TX:t=P:problem:kreska pseudotaktowa
.	.	.	.	.	16ee\
=59-	=59-	=59-	=59-	=59-	=59-
2.C/	.	2.C/	.	8cc\	8cc\
.	.	.	.	8cc\	8gg\
.	.	.	.	4ee\	8ee\
.	.	.	.	.	8cc\
!	!	!	!	!LO:TX:t=P:problem:kreska pseudotaktowa:między nutą a kropką	!
.	.	.	.	4.gg\	8gny/
!	!	!	!	!	!LO:TX:t=P:problem:kreska pseudotaktowa
.	.	.	.	.	8a/
2.GG/	3	2.GG/	3	.	4b/
.	.	.	.	8gg\	.
.	4	.	4	8ff\	8cc\
.	.	.	.	8ee\	4cc\
.	.	.	.	8.dd\	.
.	3	.	3	.	8b/
.	.	.	.	16ee\	.
=60-	=60-	=60-	=60-	=60-	=60-
2C/	.	2C/	.	8cc\	8cc\
.	.	.	.	8gg\	8ee\
.	.	.	.	8ee\	4gg\
.	.	.	.	8cc\	.
!	!	!	!	!	!LO:TX:t=P:problem:kreska pseudotaktowa:między nutą a kropką
4GG/	.	4GG/	.	8b/	4.bb\
!	!	!	!	!	!
.	.	.	.	8cc\	.
*	*	*	*	*custos:dd	*
!	!	!	!	!LO:LB:g=original	!
!LO:TX:t=P:problem:kreska pseudotaktowa	!	!LO:TX:t=P:problem:kreska pseudotaktowa	!	!	!
2.BB/	#	2.BB/	#	4dd#X\	.
.	.	.	.	.	8bb\
!	!	!	!	!	!LO:SIC:v:s=8aa\
.	4	.	4	8ee\	8ff\
!	!	!	!	!	!LO:SIC:v:s=8gg\
.	.	.	.	4ee\	8ee\
.	.	.	.	.	8.ff#X\
.	#	.	#	8dd#X\	.
!	!	!	!	!	!LO:TX:t=P:problem:kreska pseudotaktowa
.	.	.	.	.	16gg\
=61-	=61-	=61-	=61-	=61-	=61-
2.E\	-	2.E\	6	8ee\	8ee\
.	.	.	.	8ee\	8bb\
.	.	.	.	4gg\	8gg\
.	.	.	.	.	8ee\
!	!	!	!	!LO:TX:t=P:problem:kreska pseudotaktowa:między nutą a kropką	!
.	.	.	.	4.bb\	8b/
!	!	!	!	!	!
.	.	.	.	.	8cc\
*	*	*	*	*	*custos:dd
!	!	!	!	!	!LO:LB:g=original
2.BB/	#	2.BB/	#	.	4dd#X\
.	.	.	.	8bb\	.
.	.	.	.	8aa\	8ee\
.	4	.	4	8gg\	4ee\
.	.	.	.	8.ff#X\	.
!	!	!	!	!	!LO:TX:t=P:problem:kreska pseudotaktowa
.	#	.	#	.	8dd#X\
!	!	!	!	!LO:TX:t=P:problem:kreska pseudotaktowa	!
.	.	.	.	16gg\	.
=62-	=62-	=62-	=62-	=62-	=62-
2.E\	-	2.E\	6	8ee\	2ee\
.	.	.	.	8bb\	.
.	.	.	.	8gg\	.
.	.	.	.	8ee\	.
.	.	.	.	8b/	4r
.	.	.	.	8cc\	.
!LO:TX:t=P:problem:kreska pseudotaktowa	!	!LO:TX:t=P:problem:kreska pseudotaktowa	!	!	!
2.BB/	6	2.BB/	6	2ddny\	8r
.	.	.	.	.	8ddny\
.	.	.	.	.	8b/
.	.	.	.	.	8g/
!	!	!	!	!LO:TX:t=P:problem:kreska pseudotaktowa	!
.	.	.	.	4r	8d/
!	!	!	!	!	!LO:TX:t=P:problem:kreska pseudotaktowa
.	.	.	.	.	8e/
=63-	=63-	=63-	=63-	=63-	=63-
2.D/	-	2.D/	-	8r	2fny/
.	.	.	.	8aa\	.
.	.	.	.	8ffny\	.
.	.	.	.	8dd\	.
.	.	.	.	8a/	4r
.	.	.	.	8b/	.
!	!	!	!	!	!LO:N:vis=2
2.AA/	.	2.AA/	.	8cc\	2.r
.	.	.	.	8ee\	.
.	.	.	.	8cc\	.
.	.	.	.	8a/	.
.	.	.	.	8e/	.
!	!	!	!	!LO:TX:t=P:problem:kreska pseudotaktowa	!
.	.	.	.	8f/	.
=64-	=64-	=64-	=64-	=64-	=64-
2.E\	6	2.E\	6	2g/	8r
.	.	.	.	.	8gg\
.	.	.	.	.	8ee\
.	.	.	.	.	8cc\
.	.	.	.	4r	8g/
!	!	!	!	!	!LO:TX:t=P:problem:kreska pseudotaktowa
.	.	.	.	.	8a/
4G\	.	4G\	.	8r	8b/
!	!	!	!	!	!
.	.	.	.	8gg\	8b/
*	*	*	*	*custos:ee	*
!	!	!	!	!LO:PB:g=original	!
4A\	.	4A\	.	8ee\	4cc\
.	.	.	.	8cc\	.
!LO:TX:t=P:problem:kreska pseudotaktowa	!	!LO:TX:t=P:problem:kreska pseudotaktowa	!	!	!
4E\	.	4E\	.	8g/	4.ee\
!	!	!	!	!LO:TX:t=P:problem:kreska pseudotaktowa	!
.	.	.	.	8a/	.
=65-	=65-	=65-	=65-	=65-	=65-
2.G\	3	2.G\	3	4b/	.
.	.	.	.	.	8ee\
.	4	.	4	8cc\	8dd\
.	.	.	.	4cc\	8cc\
.	.	.	.	.	8.dd\
!	!	!	!	!LO:TX:t=P:problem:kreska pseudotaktowa	!
.	3	.	3	8b/	.
!	!	!	!	!	!LO:TX:t=P:problem:kreska pseudotaktowa
.	.	.	.	.	16ee\
2.C/	.	2.C/	.	2cc\	8cc\
.	.	.	.	.	8gg\
.	.	.	.	.	8ee\
.	.	.	.	.	8cc\
.	.	.	.	4r	8g/
.	.	.	.	.	8a/
=66-	=66-	=66-	=66-	=66-	=66-
!	!	!	!	!	!
2.GG/	.	2.GG/	.	8r	2.b/
.	.	.	.	8dd\	.
.	.	.	.	8b/	.
.	.	.	.	8g/	.
.	.	.	.	8d/	.
!	!	!	!	!LO:TX:t=P:problem:kreska pseudotaktowa	!
.	.	.	.	8e/	.
*	*	*	*	*	*custos:d
!	!	!	!	!	!LO:PB:g=original
!LO:TX:t=P:problem:kreska pseudotaktowa	!	!LO:TX:t=P:problem:kreska pseudotaktowa	!	!	!
2.D/	.	2.D/	.	8f/	4d/
.	.	.	.	8aa\	.
.	.	.	.	8ff\	4f/
.	.	.	.	8dd\	.
.	.	.	.	8a/	4.a/
.	.	.	.	8b/	.
=67-	=67-	=67-	=67-	=67-	=67-
2.AA/	#	2.AA/	#	4cc#X\	.
.	.	.	.	.	8a/
.	4	.	4	8dd\	8g/
.	.	.	.	4dd\	8f/
.	.	.	.	.	8.e/
!	!	!	!	!LO:TX:t=P:problem:kreska pseudotaktowa	!
.	#	.	3	8cc#X\	.
!	!	!	!	!	!LO:TX:t=P:problem:kreska pseudotaktowa
.	.	.	.	.	16f/
2D/	.	2D/	.	8dd\	8d/
.	.	.	.	8f/	8aa\
.	.	.	.	4a/	8ffny\
.	.	.	.	.	8dd\
!LO:TX:t=P:problem:kreska pseudotaktowa	!	!LO:TX:t=P:problem:kreska pseudotaktowa	!	!	!
4AA/	.	4AA/	.	4.ccny\	8cc\
!	!	!	!	!	!LO:TX:t=P:problem:kreska pseudotaktowa
.	.	.	.	.	8dd\
=68-	=68-	=68-	=68-	=68-	=68-
2.C/	3	2.C/	3	.	4ee\
.	.	.	.	8cc\	.
.	4	.	4	8b-X/	8ff\
.	.	.	.	8a/	4ff\
.	.	.	.	8.g/	.
.	3	.	3	.	8ee\
!	!	!	!	!	!
.	.	.	.	16a/	.
*	*	*	*	*custos:f	*
!	!	!	!	!LO:LB:g=original	!
2.FF/	.	2.FF/	.	8f/	8ff\
.	.	.	.	8ccc\	8f/
.	.	.	.	8aa\	4a/
.	.	.	.	8ff\	.
!	!	!	!	!	!LO:TX:t=P:problem:kreska pseudotaktowa:między nutą a kropką
.	.	.	.	8cc\	4.cc\
!	!	!	!	!LO:TX:t=P:problem:kreska pseudotaktowa	!
.	.	.	.	8dd\	.
=69-	=69-	=69-	=69-	=69-	=69-
2.C/	3	2.C/	3	4ee\	.
.	.	.	.	.	8cc\
.	4	.	4	8ff\	8b-X/
.	.	.	.	4ff\	8a/
.	.	.	.	.	8.g/
.	3	.	3	8ee\	.
.	.	.	.	.	16a/
2F\	.	2F\	.	2ff\	8f/
.	.	.	.	.	8a/
.	.	.	.	.	4cc\
!	!	!	!	!LO:TX:t=P:problem:kreska pseudotaktowa	!LO:TX:t=P:problem:kreska pseudotaktowa:między nutą a kropką
4C/	.	4C/	.	4r	4.ee\
*custos:E	*	*custos:E	*	*	*
!LO:LB:g=original	!	!LO:LB:g=original	!	!	!
=70-	=70-	=70-	=70-	=70-	=70-
!	!	!	!	!LO:N:vis=2	!
2.E\	#	2.E\	#	2.r	.
.	.	.	.	.	8ee\
.	.	.	.	.	8dd\
.	.	.	.	.	8cc\
.	.	.	.	.	8.bny/
!	!	!	!	!	!
.	.	.	.	.	16cc\
*	*	*	*	*	*custos:a
!	!	!	!	!	!LO:LB:g=original
2.AA/	.	2.AA/	.	4a/	8a/
.	.	.	.	.	8ee\
.	.	.	.	4cc\	8cc\
.	.	.	.	.	8a/
.	.	.	.	4.ee\	8e/
!	!	!	!	!	!LO:TX:t=P:problem:kreska pseudotaktowa
.	.	.	.	.	8f#X/
=71-	=71-	=71-	=71-	=71-	=71-
2.E\	#	2.E\	#	.	4g#X/
.	.	.	.	8ee\	.
.	4	.	4	8dd\	8a/
.	.	.	.	8cc\	4a/
.	.	.	.	8.bny/	.
.	#	.	#	.	8g#X/
!	!	!	!	!LO:TX:t=P:problem:kreska pseudotaktowa	!
.	.	.	.	16cc\	.
!LO:TX:t=P:problem:kreska pseudotaktowa	!	!LO:TX:t=P:problem:kreska pseudotaktowa	!	!	!
2.AA/	.	2.AA/	.	8a/	2a/
.	.	.	.	8ee\	.
.	.	.	.	8cc\	.
.	.	.	.	8a/	.
!	!	!	!	!	!LO:TX:t=P:problem:kreska pseudotaktowa
.	.	.	.	8e/	4r
.	.	.	.	8f/	.
=72-	=72-	=72-	=72-	=72-	=72-
2.E\	6	2.E\	6	2g/	8r
.	.	.	.	.	8gg\
.	.	.	.	.	8ee\
.	.	.	.	.	8cc\
!	!	!	!	!LO:TX:t=P:problem:kreska pseudotaktowa	!
.	.	.	.	4r	8gny/
.	.	.	.	.	8a/
2.G\	.	2.G\	.	8r	2b/
.	.	.	.	8dd\	.
.	.	.	.	8b/	.
.	.	.	.	8g/	.
.	.	.	.	8d/	4r
.	.	.	.	8e/	.
=73-	=73-	=73-	=73-	=73-	=73-
2.D/	.	2.D/	.	2f/	8r
.	.	.	.	.	8aa\
.	.	.	.	.	8ff\
.	.	.	.	.	8dd\
!	!	!	!	!LO:TX:t=P:problem:kreska pseudotaktowa	!
.	.	.	.	4r	8a/
.	.	.	.	.	8b/
2AA/	.	2AA/	.	8r	2cc\
.	.	.	.	8ee\	.
.	.	.	.	8cc\	.
!	!	!	!	!	!
.	.	.	.	8a/	.
*	*	*	*	*custos:e	*
!	!	!	!	!LO:LB:g=original	!
!LO:TX:t=P:problem:kreska pseudotaktowa	!	!LO:TX:t=P:problem:kreska pseudotaktowa	!	!	!LO:TX:t=P:problem:kreska pseudotaktowa
4C/	.	4C/	.	8e/	4r
.	.	.	.	8f#X/	.
=74-	=74-	=74-	=74-	=74-	=74-
4E\	#	4E\	#	8g#X/	8r
.	.	.	.	8g#/	8ee\
4F\	.	4F\	.	4a/	8cc\
.	.	.	.	.	8a/
!	!	!	!	!LO:TX:t=P:problem:kreska pseudotaktowa	!
4C/	.	4C/	.	4.cc\	8e/
!	!	!	!	!	!LO:TX:t=P:problem:kreska pseudotaktowa
.	.	.	.	.	8f#X/
2.E\	#	2.E\	#	.	4g#X/
.	6 4	.	6 4	8cc\	.
.	.	.	.	8b/	8a/
.	.	.	.	8a/	4a/
.	5 #	.	5 #	8.b/	.
!	!	!	!	!	!
.	.	.	.	.	8g#X/
.	.	.	.	16cc\	.
*	*	*	*	*	*custos:a
!	!	!	!	!	!LO:LB:g=original
=75-	=75-	=75-	=75-	=75-	=75-
2.AA/	.	2.AA/	.	2.a/	2.a/
=76-	=76-	=76-	=76-	=76-	=76-
*M2/2	*	*M2/2	*	*M2/2	*M2/2
*met(c|)	*	*met(c|)	*	*met(c|)	*met(c|)
!LO:TX:b:B:t=adagio.	!	!LO:TX:b:B:t=adagio.	!	!LO:TX:b:B:t=adagio.	!LO:TX:b:B:t=adagio.
2AA/	.	2AA/	.	1r	8r
.	.	.	.	.	8a/
.	.	.	.	.	8cc\
.	.	.	.	.	8.ee\
2GG#X/	.	2GG#X/	.	.	.
.	.	.	.	.	16ee\
.	.	.	.	.	16dd\
.	.	.	.	.	16cc\
.	.	.	.	.	8.b/
.	.	.	.	.	32cc\
!	!	!	!	!	!LO:TX:t=P:problem:kreska pseudotaktowa
.	.	.	.	.	32dd\
=77-	=77-	=77-	=77-	=77-	=77-
4AA/	.	4AA/	.	8r	8cc\
.	.	.	.	8a/	8cc\
4.EE/	.	4.EE/	.	8cc\	8ee\
.	.	.	.	8.ee\	8.gg\
.	.	.	.	16ee\	16gg\
8FF/	.	8FF/	.	16dd\	16ff\
.	.	.	.	16cc\	16ee\
!LO:TX:t=P:problem:kreska pseudotaktowa	!	!LO:TX:t=P:problem:kreska pseudotaktowa	!	!	!
4GGny/	.	4GGny/	.	8.b/	8.dd\
.	.	.	.	32cc\	32ee\
!	!	!	!	!LO:TX:t=P:problem:kreska pseudotaktowa	!LO:TX:t=P:problem:kreska pseudotaktowa
.	.	.	.	32dd\	32ff\
=78-	=78-	=78-	=78-	=78-	=78-
4.C/	.	4.C/	.	4cc\	16ee\
.	.	.	.	.	16gg\
.	.	.	.	.	16ee\
.	.	.	.	.	16cc\
.	.	.	.	16ee\	8.gny/
.	.	.	.	16gg\	.
8E\	.	8E\	.	16ee\	.
.	.	.	.	16cc\	16a/
2G\	.	2G\	.	8.gny/	8.b/
.	.	.	.	16a/	16cc\
.	.	.	.	8.b/	8.dd\
!	!	!	!	!	!
!	!	!	!	!	!LO:TX:t=P:problem:kreska pseudotaktowa
.	.	.	.	16cc\	16ee\
*	*	*	*	*custos:dd	*custos:ff
!	!	!	!	!LO:LB:g=original	!LO:LB:g=original
=79-	=79-	=79-	=79-	=79-	=79-
4.D/	.	4.D/	.	4dd\	16ff\
.	.	.	.	.	16aa\
.	.	.	.	.	16ff\
.	.	.	.	.	16dd\
.	.	.	.	16ff\	8.a/
.	.	.	.	16aa\	.
8F\	.	8F\	.	16ff\	.
.	.	.	.	16dd\	16b/
!	!	!	!	!	!
2A\	#	2A\	#	8a/	16cc#X\
.	.	.	.	.	16aa\
.	4	.	4	4dd\	16ff\
.	.	.	.	.	16dd\
!	!	!	!	!	!LO:TX:t=P:problem:kreska pseudotaktowa
.	.	.	.	.	4ee\
!	!	!	!	!LO:TX:t=P:problem:kreska pseudotaktowa	!
.	#	.	#	8cc#X\	.
*custos:D	*	*custos:D	*	*	*
!LO:LB:g=original	!	!LO:LB:g=original	!	!	!
=80-	=80-	=80-	=80-	=80-	=80-
[1D	.	[1D	.	4dd\	8dd\
!	!	!	!	!	!
.	.	.	.	.	8.aa\
.	.	.	.	8r	.
.	.	.	.	.	16gg\
.	.	.	.	8.aa\	16ff\
.	.	.	.	.	32ee\
.	.	.	.	.	32ff\
.	.	.	.	.	4.dd\
.	.	.	.	16gg\	.
.	.	.	.	16ff\	.
.	.	.	.	32ee\	.
.	.	.	.	32ff\	.
.	.	.	.	2dd\	.
.	.	.	.	.	8ee\
=81-	=81-	=81-	=81-	=81-	=81-
4D/]	.	4D/]	.	.	4ff\
4C#X/	.	4C#X/	.	4.ee\	4ee\
2D/	9	2D/	9	.	2ff\
.	.	.	.	8ee\	.
.	8	.	8	4dd\	.
=82-	=82-	=82-	=82-	=82-	=82-
0AA;	.	0AA;	.	0cc#X;<	0ee;<
==	==	==	==	==	==
*-	*-	*-	*-	*-	*-
!!!system-decoration: [(s1,s2,s3)]s4
!!!RDF**kern: < = below
!!!ENC: Filip Voros
!!!END: 2022-11-08
!!!ENC: Marta Lawrence
!!!END: 2022-11-30
